X: 5596
T: Busybody
R: reel
M: 4/4
K: Amixolydian
|:ef ge dg ed|BA AA GA AA|d2 eg ed BA|BG GG B2 AB|
ef ge dg ed|BA AA Bd ef|ga ge Bd dd|B2 A2 A4:|
|:Bd dd eg Bd|dd eg ed BA|ed de ee eg|BA AA GA AA|
Bd dd eg Bd|dd eg Bd ef|ga ge Bd dd|B2 A2 A4:|
|:e2 eg de Bd|e2 eg BA AA|eg BB Bd AA|BG GG B2 AB|
e2 eg de Bd|e2 AA Bd ef|ga ge Bd dd|B2 A2 A4:|
|:a2 ea ae ee|Gg fg ed dd|eg fg de ee|BA AA GA AA|
a2 ea ae ee|Gg fg Bd ef|ga ge Bd dd|B2 A2 A4:|

